src/images/single-assets/eUSD.svg

<svg width="64" height="64" viewBox="0 0 64 64" fill="none" xmlns="http://www.w3.org/2000/svg">
<g clip-path="url(#clip0_5820_372915)">
<mask id="mask0_5820_372915" style="mask-type:alpha" maskUnits="userSpaceOnUse" x="0" y="0" width="64" height="64">
<rect width="64" height="64" rx="32" fill="#D9D9D9"/>
</mask>
<g mask="url(#mask0_5820_372915)">
<rect width="64" height="64" rx="32" fill="white"/>
<path fill-rule="evenodd" clip-rule="evenodd" d="M55.625 32C55.625 45.0477 45.0477 55.625 32 55.625C18.9523 55.625 8.375 45.0477 8.375 32C8.375 18.9523 18.9523 8.375 32 8.375C45.0477 8.375 55.625 18.9523 55.625 32ZM60 32C60 47.464 47.464 60 32 60C16.536 60 4 47.464 4 32C4 16.536 16.536 4 32 4C47.464 4 60 16.536 60 32ZM34.1875 15.6321V12.3125H29.8125V15.5357C29.4846 15.5907 29.1583 15.6596 28.8346 15.7427C26.8658 16.2477 25.0615 17.256 23.5963 18.6681C22.1311 20.08 21.0547 21.8479 20.4697 23.7994C19.8848 25.7508 19.8107 27.8209 20.2547 29.8094C20.6987 31.798 21.6459 33.6387 23.006 35.1526C24.194 36.4752 25.6621 37.5093 27.299 38.1804C27.3468 38.3767 27.4097 38.5699 27.4878 38.7581C27.7862 39.4777 28.2913 40.0927 28.9393 40.5251C29.5873 40.9576 30.349 41.1881 31.128 41.1875C32.171 41.1859 33.1708 40.7709 33.9084 40.0334C34.6459 39.2958 35.0609 38.296 35.0625 37.253C35.0631 36.474 34.8326 35.7123 34.4001 35.0642C33.9677 34.4163 33.3527 33.9112 32.6331 33.6128C31.9135 33.3144 31.1216 33.2362 30.3575 33.388C29.7948 33.4998 29.2658 33.7328 28.8061 34.0678C27.8403 33.6462 26.9715 33.0203 26.2605 32.2289C25.4038 31.2752 24.8053 30.1136 24.5246 28.8561C24.2438 27.5986 24.2906 26.2892 24.6605 25.0556C25.0303 23.822 25.71 22.7071 26.6322 21.8182C27.5544 20.9295 28.6877 20.297 29.9217 19.9804C31.1556 19.6639 32.4498 19.6736 33.6789 20.0088C34.9081 20.344 36.0319 20.9936 36.9408 21.8963C37.8498 22.7989 38.5129 23.9241 38.8642 25.1633L43.0733 23.9698C42.5175 22.0097 41.4675 20.2259 40.0237 18.792C38.5797 17.358 36.7909 16.3227 34.8298 15.7879C34.6169 15.7298 34.4027 15.6779 34.1875 15.6321ZM31.5625 31.3438C30.6972 31.3438 29.8514 31.0872 29.1319 30.6064C28.4124 30.1257 27.8516 29.4424 27.5205 28.643C27.1894 27.8436 27.1028 26.9639 27.2716 26.1153C27.4404 25.2665 27.857 24.487 28.4689 23.8752C29.0807 23.2633 29.8603 22.8466 30.709 22.6778C31.5577 22.5091 32.4373 22.5957 33.2367 22.9268C34.0361 23.2579 34.7194 23.8187 35.2001 24.5382C35.5009 24.9881 35.7139 25.4876 35.8312 26.0103C36.9467 26.4693 37.9904 27.0927 38.9236 27.8641C40.4977 29.1653 41.7052 30.8447 42.4212 32.7437C43.1373 34.6431 43.335 36.6926 42.9931 38.6911C42.6511 40.6893 41.7827 42.5613 40.4793 44.1272C39.1762 45.6926 37.4837 46.8983 35.5704 47.6346C34.9771 47.8629 34.3683 48.0439 33.75 48.1769V51.6875H29.375V48.3215C27.4029 48.0321 25.5309 47.2674 23.9319 46.0906C22.2858 44.8793 20.983 43.2706 20.1577 41.4154L24.1548 39.6371C24.6665 40.7872 25.4804 41.7982 26.525 42.567C27.57 43.3361 28.8087 43.8347 30.1218 44.0084C31.4351 44.1822 32.7713 44.024 33.9991 43.5515C35.2266 43.0791 36.299 42.3107 37.1166 41.3283C37.9341 40.3464 38.4703 39.1832 38.6807 37.9532C38.8912 36.7235 38.7702 35.4613 38.3275 34.287C37.8845 33.1121 37.1324 32.0597 36.1362 31.2362C35.6392 30.8254 35.0902 30.4789 34.5034 30.2042C33.7005 30.9342 32.6527 31.3421 31.5625 31.3438Z" fill="black"/>
</g>
</g>
<defs>
<clipPath id="clip0_5820_372915">
<rect width="64" height="64" fill="white"/>
</clipPath>
</defs>
</svg>

<svg xmlns="http://www.w3.org/2000/svg" width="64" height="64" fill="none"><g clip-path="url(#a)"><mask id="b" width="64" height="64" x="0" y="0" maskUnits="userSpaceOnUse" style="mask-type:alpha"><rect width="64" height="64" fill="#D9D9D9" rx="32"/></mask><g mask="url(#b)"><rect width="64" height="64" fill="#fff" rx="32"/><path fill="#000" fill-rule="evenodd" d="M55.625 32c0 13.048-10.577 23.625-23.625 23.625S8.375 45.048 8.375 32 18.952 8.375 32 8.375 55.625 18.952 55.625 32M60 32c0 15.464-12.536 28-28 28S4 47.464 4 32 16.536 4 32 4s28 12.536 28 28M34.188 15.632v-3.32h-4.376v3.224a11.75 11.75 0 0 0-6.216 3.132A11.85 11.85 0 0 0 20.47 23.8a11.9 11.9 0 0 0-.215 6.01 11.86 11.86 0 0 0 2.751 5.344 11.8 11.8 0 0 0 4.293 3.027 3.937 3.937 0 1 0 1.507-4.112 7.4 7.4 0 0 1-2.546-1.84 7.5 7.5 0 0 1-1.735-3.372 7.5 7.5 0 0 1 .136-3.8 7.5 7.5 0 0 1 1.971-3.238 7.4 7.4 0 0 1 3.29-1.838 7.34 7.34 0 0 1 3.757.029 7.4 7.4 0 0 1 3.262 1.887 7.5 7.5 0 0 1 1.923 3.267l4.21-1.193a11.86 11.86 0 0 0-3.05-5.178 11.76 11.76 0 0 0-5.837-3.16m-2.626 15.712a4.375 4.375 0 1 1 4.27-5.334 12 12 0 0 1 3.092 1.854 11.7 11.7 0 0 1 3.497 4.88c.716 1.9.914 3.949.572 5.947a11.54 11.54 0 0 1-2.514 5.436 12 12 0 0 1-4.909 3.508q-.891.342-1.82.542v3.51h-4.375v-3.365a12.16 12.16 0 0 1-5.443-2.231 11.73 11.73 0 0 1-3.774-4.676l3.997-1.778a7.36 7.36 0 0 0 2.37 2.93 7.8 7.8 0 0 0 3.597 1.441 7.9 7.9 0 0 0 3.877-.457 7.6 7.6 0 0 0 3.118-2.223 7.16 7.16 0 0 0 1.564-3.375c.21-1.23.09-2.492-.353-3.666a7.3 7.3 0 0 0-2.192-3.05 7.7 7.7 0 0 0-1.633-1.033 4.38 4.38 0 0 1-2.94 1.14" clip-rule="evenodd"/></g></g><defs><clipPath id="a"><path fill="#fff" d="M0 0h64v64H0z"/></clipPath></defs></svg>
